assets/ai/ai-depsy-square.svg

<svg xmlns="http://www.w3.org/2000/svg" width="100%" height="100%" viewBox="-75.52 -43.52 599.04 599.04"><path d="M 48 32 C 21.5 32 0 53.5 0 80 L 0 432 C 0 458.5 21.5 480 48 480 L 400 480 C 426.5 480 448 458.5 448 432 L 448 80 C 448 53.5 426.5 32 400 32 L 48 32 z M 224 96 C 246.42007 96 267.75969 100.61859 287.12891 108.94531 L 263.875 108.94531 L 263.875 205.93555 C 255.14435 197.07544 245.63633 190.43078 235.34961 186 C 225.06544 181.57066 214.06364 179.35352 202.34375 179.35352 C 176.86629 179.35352 155.22157 188.99413 137.40039 208.27148 C 119.58063 227.55138 110.66992 252.27642 110.66992 282.45117 C 110.66992 311.54711 119.87618 335.88551 138.29492 355.46289 C 156.71367 375.0403 178.54271 384.82812 203.77734 384.82812 C 215.02002 384.82812 225.45313 382.82244 235.08398 378.81055 C 244.70789 374.80125 254.30578 368.24598 263.875 359.14453 L 263.875 379.79883 L 312.9082 379.79883 L 312.9082 122.96484 C 355.77371 151.66885 384 200.53592 384 256 C 384 344.36518 312.36519 416 224 416 C 135.63482 416 64 344.36518 64 256 C 64 167.63482 135.63482 96 224 96 z M 212.33203 224.61523 C 227.84543 224.61523 240.6738 229.88529 250.8125 240.41992 C 260.95667 250.95857 266.03125 264.72922 266.03125 281.73047 C 266.03125 299.09303 260.95667 313.13486 250.8125 323.84961 C 240.67233 334.56727 227.90235 339.92383 212.50781 339.92383 C 197.58905 339.92383 185.03012 334.4775 174.82617 323.58008 C 164.62221 312.6856 159.52148 298.79292 159.52148 281.91016 C 159.52148 265.14625 164.53474 251.40821 174.55859 240.68945 C 184.5839 229.97471 197.17485 224.61523 212.33203 224.61523 z"/></svg>

<svg xmlns="http://www.w3.org/2000/svg" width="100%" height="100%" viewBox="-75.52 -43.52 599.04 599.04"><path d="M48 32C21.5 32 0 53.5 0 80v352c0 26.5 21.5 48 48 48h352c26.5 0 48-21.5 48-48V80c0-26.5-21.5-48-48-48H48zm176 64c22.42 0 43.76 4.619 63.129 12.945h-23.254v96.99c-8.73-8.86-18.239-15.504-28.525-19.935-10.285-4.43-21.286-6.646-33.006-6.646-25.478 0-47.122 9.64-64.944 28.917-17.82 19.28-26.73 44.005-26.73 74.18 0 29.096 9.206 53.435 27.625 73.012 18.419 19.577 40.248 29.365 65.482 29.365 11.243 0 21.676-2.006 31.307-6.017 9.624-4.01 19.222-10.565 28.791-19.666v20.654h49.033V122.965C355.774 151.669 384 200.535 384 256c0 88.365-71.635 160-160 160S64 344.365 64 256 135.635 96 224 96zm-11.668 128.615c15.513 0 28.342 5.27 38.48 15.805 10.145 10.539 15.22 24.31 15.22 41.31 0 17.363-5.075 31.405-15.22 42.12-10.14 10.717-22.91 16.074-38.304 16.074-14.919 0-27.478-5.446-37.682-16.344-10.204-10.894-15.305-24.787-15.305-41.67 0-16.764 5.014-30.502 15.038-41.22 10.025-10.715 22.616-16.075 37.773-16.075z"/></svg>
